static/img/kroki/968314e6793388659a54356a1042ff12.svg

<?xml version="1.0" encoding="us-ascii" standalone="no"?><svg xmlns="http://www.w3.org/2000/svg" xmlns:xlink="http://www.w3.org/1999/xlink" contentStyleType="text/css" height="899px" preserveAspectRatio="none" style="width:368px;height:899px;" version="1.1" viewBox="0 0 368 899" width="368px" zoomAndPan="magnify"><defs/><g><!--class digitalocean_image--><g id="elem_digitalocean_image"><rect codeLine="23" fill="#3D176E" height="258.1641" id="digitalocean_image" rx="2.5" ry="2.5" style="stroke:#000D19;stroke-width:0.5;" width="204" x="41.5" y="633.85"/><ellipse cx="56.5" cy="653.7445" fill="#ADD1B2" rx="11" ry="11" style="stroke:#181818;stroke-width:1.0;"/><path d="M59.4688,659.3852 Q58.8906,659.682 58.25,659.8227 Q57.6094,659.9789 56.9063,659.9789 Q54.4063,659.9789 53.0781,658.3383 Q51.7656,656.682 51.7656,653.557 Q51.7656,650.432 53.0781,648.7758 Q54.4063,647.1195 56.9063,647.1195 Q57.6094,647.1195 58.25,647.2758 Q58.9063,647.432 59.4688,647.7289 L59.4688,650.4477 Q58.8438,649.8695 58.25,649.6039 Q57.6563,649.3227 57.0313,649.3227 Q55.6875,649.3227 55,650.4008 Q54.3125,651.4633 54.3125,653.557 Q54.3125,655.6508 55,656.7289 Q55.6875,657.7914 57.0313,657.7914 Q57.6563,657.7914 58.25,657.5258 Q58.8438,657.2445 59.4688,656.6664 L59.4688,659.3852 Z " fill="#000000"/><text fill="#D9B8FF" font-family="Helvetica" font-size="17" lengthAdjust="spacing" textLength="162" x="75.5" y="659.6298">digitalocean_image</text><line style="stroke:#000D19;stroke-width:0.5;" x1="42.5" x2="244.5" y1="673.6391" y2="673.6391"/><text fill="#D9B8FF" font-family="sans-serif" font-size="14" font-weight="bold" lengthAdjust="spacing" textLength="89" x="52.5" y="695.6342">description</text><text fill="#D9B8FF" font-family="sans-serif" font-size="14" lengthAdjust="spacing" textLength="48" x="141.5" y="695.6342">: string</text><text fill="#D9B8FF" font-family="sans-serif" font-size="14" font-weight="bold" lengthAdjust="spacing" textLength="90" x="52.5" y="721.9311">distribution</text><text fill="#D9B8FF" font-family="sans-serif" font-size="14" lengthAdjust="spacing" textLength="48" x="142.5" y="721.9311">: string</text><text fill="#D9B8FF" font-family="sans-serif" font-size="14" font-weight="bold" lengthAdjust="spacing" textLength="87" x="52.5" y="748.2279">image_slug</text><text fill="#D9B8FF" font-family="sans-serif" font-size="14" lengthAdjust="spacing" textLength="48" x="139.5" y="748.2279">: string</text><text fill="#D9B8FF" font-family="sans-serif" font-size="14" font-weight="bold" lengthAdjust="spacing" textLength="103" x="52.5" y="774.5248">image_status</text><text fill="#D9B8FF" font-family="sans-serif" font-size="14" lengthAdjust="spacing" textLength="48" x="155.5" y="774.5248">: string</text><text fill="#D9B8FF" font-family="sans-serif" font-size="14" font-weight="bold" lengthAdjust="spacing" textLength="89" x="52.5" y="800.8217">image_type</text><text fill="#D9B8FF" font-family="sans-serif" font-size="14" lengthAdjust="spacing" textLength="48" x="141.5" y="800.8217">: string</text><text fill="#D9B8FF" font-family="sans-serif" font-size="14" font-weight="bold" lengthAdjust="spacing" textLength="67" x="52.5" y="827.1186">is_public</text><text fill="#D9B8FF" font-family="sans-serif" font-size="14" lengthAdjust="spacing" textLength="65" x="119.5" y="827.1186">: boolean</text><text fill="#D9B8FF" font-family="sans-serif" font-size="14" font-weight="bold" lengthAdjust="spacing" textLength="106" x="52.5" y="853.4154">min_disk_size</text><text fill="#D9B8FF" font-family="sans-serif" font-size="14" lengthAdjust="spacing" textLength="44" x="158.5" y="853.4154">: int64</text><text fill="#D9B8FF" font-family="sans-serif" font-size="14" font-weight="bold" lengthAdjust="spacing" textLength="116" x="52.5" y="879.7123">size_gigabytes</text><text fill="#D9B8FF" font-family="sans-serif" font-size="14" lengthAdjust="spacing" textLength="44" x="168.5" y="879.7123">: int64</text></g><!--class digitalocean_resource--><g id="elem_digitalocean_resource"><rect codeLine="33" fill="#3D176E" height="74.0859" id="digitalocean_resource" rx="2.5" ry="2.5" style="stroke:#000D19;stroke-width:0.5;" width="223" x="138" y="438.76"/><ellipse cx="153" cy="458.6545" fill="#ADD1B2" rx="11" ry="11" style="stroke:#181818;stroke-width:1.0;"/><path d="M155.9688,464.2952 Q155.3906,464.592 154.75,464.7327 Q154.1094,464.8889 153.4063,464.8889 Q150.9063,464.8889 149.5781,463.2483 Q148.2656,461.592 148.2656,458.467 Q148.2656,455.342 149.5781,453.6858 Q150.9063,452.0295 153.4063,452.0295 Q154.1094,452.0295 154.75,452.1858 Q155.4063,452.342 155.9688,452.6389 L155.9688,455.3577 Q155.3438,454.7795 154.75,454.5139 Q154.1563,454.2327 153.5313,454.2327 Q152.1875,454.2327 151.5,455.3108 Q150.8125,456.3733 150.8125,458.467 Q150.8125,460.5608 151.5,461.6389 Q152.1875,462.7014 153.5313,462.7014 Q154.1563,462.7014 154.75,462.4358 Q155.3438,462.1545 155.9688,461.5764 L155.9688,464.2952 Z " fill="#000000"/><text fill="#D9B8FF" font-family="Helvetica" font-size="17" lengthAdjust="spacing" textLength="181" x="172" y="464.5398">digitalocean_resource</text><line style="stroke:#000D19;stroke-width:0.5;" x1="139" x2="360" y1="478.5491" y2="478.5491"/><text fill="#D9B8FF" font-family="sans-serif" font-size="14" font-weight="bold" lengthAdjust="spacing" textLength="27" x="149" y="500.5442">urn</text><text fill="#D9B8FF" font-family="sans-serif" font-size="14" lengthAdjust="spacing" textLength="48" x="176" y="500.5442">: string</text></g><!--class resource--><g id="elem_resource"><rect codeLine="36" fill="#3D176E" height="310.7578" id="resource" rx="2.5" ry="2.5" style="stroke:#000D19;stroke-width:0.5;" width="227" x="7" y="7"/><ellipse cx="75.75" cy="26.8945" fill="#ADD1B2" rx="11" ry="11" style="stroke:#181818;stroke-width:1.0;"/><path d="M78.7188,32.5352 Q78.1406,32.832 77.5,32.9727 Q76.8594,33.1289 76.1563,33.1289 Q73.6563,33.1289 72.3281,31.4883 Q71.0156,29.832 71.0156,26.707 Q71.0156,23.582 72.3281,21.9258 Q73.6563,20.2695 76.1563,20.2695 Q76.8594,20.2695 77.5,20.4258 Q78.1563,20.582 78.7188,20.8789 L78.7188,23.5977 Q78.0938,23.0195 77.5,22.7539 Q76.9063,22.4727 76.2813,22.4727 Q74.9375,22.4727 74.25,23.5508 Q73.5625,24.6133 73.5625,26.707 Q73.5625,28.8008 74.25,29.8789 Q74.9375,30.9414 76.2813,30.9414 Q76.9063,30.9414 77.5,30.6758 Q78.0938,30.3945 78.7188,29.8164 L78.7188,32.5352 Z " fill="#000000"/><text fill="#D9B8FF" font-family="Helvetica" font-size="17" lengthAdjust="spacing" textLength="71" x="101.25" y="32.7798">resource</text><line style="stroke:#000D19;stroke-width:0.5;" x1="8" x2="233" y1="46.7891" y2="46.7891"/><text fill="#D9B8FF" font-family="sans-serif" font-size="14" font-weight="bold" lengthAdjust="spacing" textLength="29" x="18" y="68.7842">age</text><text fill="#D9B8FF" font-family="sans-serif" font-size="14" lengthAdjust="spacing" textLength="66" x="47" y="68.7842">: duration</text><text fill="#D9B8FF" font-family="sans-serif" font-size="14" font-weight="bold" lengthAdjust="spacing" textLength="43" x="18" y="95.0811">atime</text><text fill="#D9B8FF" font-family="sans-serif" font-size="14" lengthAdjust="spacing" textLength="70" x="61" y="95.0811">: datetime</text><text fill="#D9B8FF" font-family="sans-serif" font-size="14" font-weight="bold" lengthAdjust="spacing" textLength="43" x="18" y="121.3779">ctime</text><text fill="#D9B8FF" font-family="sans-serif" font-size="14" lengthAdjust="spacing" textLength="70" x="61" y="121.3779">: datetime</text><text fill="#D9B8FF" font-family="sans-serif" font-size="14" font-weight="bold" lengthAdjust="spacing" textLength="14" x="18" y="147.6748">id</text><text fill="#D9B8FF" font-family="sans-serif" font-size="14" lengthAdjust="spacing" textLength="48" x="32" y="147.6748">: string</text><text fill="#D9B8FF" font-family="sans-serif" font-size="14" font-weight="bold" lengthAdjust="spacing" textLength="33" x="18" y="173.9717">kind</text><text fill="#D9B8FF" font-family="sans-serif" font-size="14" lengthAdjust="spacing" textLength="48" x="51" y="173.9717">: string</text><text fill="#D9B8FF" font-family="sans-serif" font-size="14" font-weight="bold" lengthAdjust="spacing" textLength="90" x="18" y="200.2686">last_access</text><text fill="#D9B8FF" font-family="sans-serif" font-size="14" lengthAdjust="spacing" textLength="66" x="108" y="200.2686">: duration</text><text fill="#D9B8FF" font-family="sans-serif" font-size="14" font-weight="bold" lengthAdjust="spacing" textLength="90" x="18" y="226.5654">last_update</text><text fill="#D9B8FF" font-family="sans-serif" font-size="14" lengthAdjust="spacing" textLength="66" x="108" y="226.5654">: duration</text><text fill="#D9B8FF" font-family="sans-serif" font-size="14" font-weight="bold" lengthAdjust="spacing" textLength="48" x="18" y="252.8623">mtime</text><text fill="#D9B8FF" font-family="sans-serif" font-size="14" lengthAdjust="spacing" textLength="70" x="66" y="252.8623">: datetime</text><text fill="#D9B8FF" font-family="sans-serif" font-size="14" font-weight="bold" lengthAdjust="spacing" textLength="43" x="18" y="279.1592">name</text><text fill="#D9B8FF" font-family="sans-serif" font-size="14" lengthAdjust="spacing" textLength="48" x="61" y="279.1592">: string</text><text fill="#D9B8FF" font-family="sans-serif" font-size="14" font-weight="bold" lengthAdjust="spacing" textLength="34" x="18" y="305.4561">tags</text><text fill="#D9B8FF" font-family="sans-serif" font-size="14" lengthAdjust="spacing" textLength="171" x="52" y="305.4561">: dictionary[string, string]</text></g><!--reverse link digitalocean_resource to digitalocean_image--><g id="link_digitalocean_resource_digitalocean_image"><path codeLine="48" d="M229.6963,530.0713 C218.3063,560.7013 207.59,589.54 191.27,633.44 " fill="none" id="digitalocean_resource-backto-digitalocean_image" style="stroke:#FFAF37;stroke-width:2.0;"/><polygon fill="none" points="235.97,513.2,224.0725,527.9801,235.32,532.1625,235.97,513.2" style="stroke:#FFAF37;stroke-width:2.0;"/></g><!--reverse link resource to digitalocean_image--><g id="link_resource_digitalocean_image"><path codeLine="49" d="M117.3216,335.8496 C116.9216,396.6496 117.56,449.06 120.5,512.85 C122.31,552.11 125.71,594.74 129.36,633.45 " fill="none" id="resource-backto-digitalocean_image" style="stroke:#FFAF37;stroke-width:2.0;"/><polygon fill="none" points="117.44,317.85,111.3217,335.8101,123.3215,335.8891,117.44,317.85" style="stroke:#FFAF37;stroke-width:2.0;"/></g><!--reverse link resource to digitalocean_resource--><g id="link_resource_digitalocean_resource"><path codeLine="50" d="M191.5108,334.8088 C210.1708,379.8388 221.97,408.35 234.47,438.52 " fill="none" id="resource-backto-digitalocean_resource" style="stroke:#FFAF37;stroke-width:2.0;"/><polygon fill="none" points="184.62,318.18,185.9679,337.1057,197.0537,332.5119,184.62,318.18" style="stroke:#FFAF37;stroke-width:2.0;"/></g><!--SRC=[fPFDRzD04CNl_YjMwYqYKaAXQH2N4Wd1fKAK6qBMU7ViZEBTjMR7LE7ZVsStRi1VRG_SxFT-ddblRU_9e4BRo55Pj0LooCA1N0CCLjqm-_kThpshYxA4yd8pDjzx9yy2js1HVS3wEmff61DVzgGF3aDGBtlMEz27YdthJ3TU65o85ZhfKRiQGhWHOIfQmLuOioskot9CZeTUN9hrvWedc6U3_82iLYkptewHPrSzsVilSKS_KAtxXtRh1ISn9ojEr9Cf4z4BEIbwzX_D-0cC8LUfrptjSvU97V90lzk3yVU9Bg4E_JL1aD7BiS7Tf1LkhqsvcOK_FWPdEXsTCbIHGEqrWil9GeNgPxPO60oQgH7oRh5u4-Tnp9Hq2jqdCZPEZ-QXRgivMK3QC6EaX4Cvv4rRrAIJMdXVnrXHjkJokFgGX_YQaqLEhbv58ztd5LLG70N3F-VtN3t6u5lMNSEM-mNE_0292HDYMeRKDob2jjD0C5r7JSzeP0QjudiP2d6NvA1r_5T76qvEswHP8yVEx75WX-SdK7KJIQV7W8zVE-_50_CjLfq_bBU_bilbpFUG_Hznzh8_]--></g></svg>

<svg xmlns="http://www.w3.org/2000/svg" width="368" height="899" viewBox="0 0 368 899"><rect width="204" height="258.164" x="41.5" y="633.85" fill="#3D176E" rx="2.5" ry="2.5" style="stroke:#000d19;stroke-width:.5"/><circle cx="56.5" cy="653.745" r="11" fill="#ADD1B2" style="stroke:#181818;stroke-width:1"/><path d="M59.469 659.385q-.578.297-1.219.438-.64.156-1.344.156-2.5 0-3.828-1.64-1.312-1.657-1.312-4.782t1.312-4.781q1.328-1.656 3.828-1.656.703 0 1.344.156.656.156 1.219.453v2.719q-.625-.578-1.219-.844-.594-.281-1.219-.281-1.343 0-2.031 1.078-.687 1.062-.687 3.156t.687 3.172q.688 1.062 2.031 1.062.625 0 1.219-.265.594-.281 1.219-.86z"/><text x="75.5" y="659.63" fill="#D9B8FF" font-family="Helvetica" font-size="17" textLength="162">digitalocean_image</text><path d="M42.5 673.639h202" style="stroke:#000d19;stroke-width:.5"/><text x="52.5" y="695.634" fill="#D9B8FF" font-family="sans-serif" font-size="14" font-weight="bold" textLength="89">description</text><text x="141.5" y="695.634" fill="#D9B8FF" font-family="sans-serif" font-size="14" textLength="48">: string</text><text x="52.5" y="721.931" fill="#D9B8FF" font-family="sans-serif" font-size="14" font-weight="bold" textLength="90">distribution</text><text x="142.5" y="721.931" fill="#D9B8FF" font-family="sans-serif" font-size="14" textLength="48">: string</text><text x="52.5" y="748.228" fill="#D9B8FF" font-family="sans-serif" font-size="14" font-weight="bold" textLength="87">image_slug</text><text x="139.5" y="748.228" fill="#D9B8FF" font-family="sans-serif" font-size="14" textLength="48">: string</text><text x="52.5" y="774.525" fill="#D9B8FF" font-family="sans-serif" font-size="14" font-weight="bold" textLength="103">image_status</text><text x="155.5" y="774.525" fill="#D9B8FF" font-family="sans-serif" font-size="14" textLength="48">: string</text><text x="52.5" y="800.822" fill="#D9B8FF" font-family="sans-serif" font-size="14" font-weight="bold" textLength="89">image_type</text><text x="141.5" y="800.822" fill="#D9B8FF" font-family="sans-serif" font-size="14" textLength="48">: string</text><text x="52.5" y="827.119" fill="#D9B8FF" font-family="sans-serif" font-size="14" font-weight="bold" textLength="67">is_public</text><text x="119.5" y="827.119" fill="#D9B8FF" font-family="sans-serif" font-size="14" textLength="65">: boolean</text><text x="52.5" y="853.415" fill="#D9B8FF" font-family="sans-serif" font-size="14" font-weight="bold" textLength="106">min_disk_size</text><text x="158.5" y="853.415" fill="#D9B8FF" font-family="sans-serif" font-size="14" textLength="44">: int64</text><text x="52.5" y="879.712" fill="#D9B8FF" font-family="sans-serif" font-size="14" font-weight="bold" textLength="116">size_gigabytes</text><text x="168.5" y="879.712" fill="#D9B8FF" font-family="sans-serif" font-size="14" textLength="44">: int64</text><rect width="223" height="74.086" x="138" y="438.76" fill="#3D176E" rx="2.5" ry="2.5" style="stroke:#000d19;stroke-width:.5"/><circle cx="153" cy="458.654" r="11" fill="#ADD1B2" style="stroke:#181818;stroke-width:1"/><path d="M155.969 464.295q-.578.297-1.219.438-.64.156-1.344.156-2.5 0-3.828-1.64-1.312-1.657-1.312-4.782t1.312-4.781q1.328-1.656 3.828-1.656.703 0 1.344.156.656.156 1.219.453v2.719q-.625-.579-1.219-.844-.594-.281-1.219-.281-1.344 0-2.031 1.078-.687 1.062-.687 3.156t.687 3.172q.688 1.062 2.031 1.062.625 0 1.219-.265.594-.281 1.219-.86z"/><text x="172" y="464.54" fill="#D9B8FF" font-family="Helvetica" font-size="17" textLength="181">digitalocean_resource</text><path d="M139 478.549h221" style="stroke:#000d19;stroke-width:.5"/><text x="149" y="500.544" fill="#D9B8FF" font-family="sans-serif" font-size="14" font-weight="bold" textLength="27">urn</text><text x="176" y="500.544" fill="#D9B8FF" font-family="sans-serif" font-size="14" textLength="48">: string</text><rect width="227" height="310.758" x="7" y="7" fill="#3D176E" rx="2.5" ry="2.5" style="stroke:#000d19;stroke-width:.5"/><circle cx="75.75" cy="26.895" r="11" fill="#ADD1B2" style="stroke:#181818;stroke-width:1"/><path d="M78.719 32.535q-.578.297-1.219.438-.64.156-1.344.156-2.5 0-3.828-1.64-1.312-1.657-1.312-4.782t1.312-4.781q1.328-1.656 3.828-1.656.703 0 1.344.156.656.156 1.219.453v2.719q-.625-.578-1.219-.844-.594-.281-1.219-.281-1.344 0-2.031 1.078-.687 1.062-.687 3.156t.687 3.172q.688 1.062 2.031 1.062.625 0 1.219-.265.594-.281 1.219-.86z"/><text x="101.25" y="32.78" fill="#D9B8FF" font-family="Helvetica" font-size="17" textLength="71">resource</text><path d="M8 46.789h225" style="stroke:#000d19;stroke-width:.5"/><text x="18" y="68.784" fill="#D9B8FF" font-family="sans-serif" font-size="14" font-weight="bold" textLength="29">age</text><text x="47" y="68.784" fill="#D9B8FF" font-family="sans-serif" font-size="14" textLength="66">: duration</text><text x="18" y="95.081" fill="#D9B8FF" font-family="sans-serif" font-size="14" font-weight="bold" textLength="43">atime</text><text x="61" y="95.081" fill="#D9B8FF" font-family="sans-serif" font-size="14" textLength="70">: datetime</text><text x="18" y="121.378" fill="#D9B8FF" font-family="sans-serif" font-size="14" font-weight="bold" textLength="43">ctime</text><text x="61" y="121.378" fill="#D9B8FF" font-family="sans-serif" font-size="14" textLength="70">: datetime</text><text x="18" y="147.675" fill="#D9B8FF" font-family="sans-serif" font-size="14" font-weight="bold" textLength="14">id</text><text x="32" y="147.675" fill="#D9B8FF" font-family="sans-serif" font-size="14" textLength="48">: string</text><text x="18" y="173.972" fill="#D9B8FF" font-family="sans-serif" font-size="14" font-weight="bold" textLength="33">kind</text><text x="51" y="173.972" fill="#D9B8FF" font-family="sans-serif" font-size="14" textLength="48">: string</text><text x="18" y="200.269" fill="#D9B8FF" font-family="sans-serif" font-size="14" font-weight="bold" textLength="90">last_access</text><text x="108" y="200.269" fill="#D9B8FF" font-family="sans-serif" font-size="14" textLength="66">: duration</text><text x="18" y="226.565" fill="#D9B8FF" font-family="sans-serif" font-size="14" font-weight="bold" textLength="90">last_update</text><text x="108" y="226.565" fill="#D9B8FF" font-family="sans-serif" font-size="14" textLength="66">: duration</text><text x="18" y="252.862" fill="#D9B8FF" font-family="sans-serif" font-size="14" font-weight="bold" textLength="48">mtime</text><text x="66" y="252.862" fill="#D9B8FF" font-family="sans-serif" font-size="14" textLength="70">: datetime</text><text x="18" y="279.159" fill="#D9B8FF" font-family="sans-serif" font-size="14" font-weight="bold" textLength="43">name</text><text x="61" y="279.159" fill="#D9B8FF" font-family="sans-serif" font-size="14" textLength="48">: string</text><text x="18" y="305.456" fill="#D9B8FF" font-family="sans-serif" font-size="14" font-weight="bold" textLength="34">tags</text><text x="52" y="305.456" fill="#D9B8FF" font-family="sans-serif" font-size="14" textLength="171">: dictionary[string, string]</text><g fill="none"><path d="M229.696 530.071c-11.39 30.63-22.106 59.469-38.426 103.369" style="stroke:#ffaf37;stroke-width:2"/><path d="m235.97 513.2-11.898 14.78 11.248 4.183z" style="stroke:#ffaf37;stroke-width:2"/></g><path fill="none" d="M117.322 335.85c-.4 60.8.238 113.21 3.178 177 1.81 39.26 5.21 81.89 8.86 120.6m-11.92-315.6-6.118 17.96 12 .08z" style="stroke:#ffaf37;stroke-width:2"/><g fill="none"><path d="M191.51 334.809c18.66 45.03 30.46 73.541 42.96 103.711" style="stroke:#ffaf37;stroke-width:2"/><path d="m184.62 318.18 1.348 18.926 11.086-4.594z" style="stroke:#ffaf37;stroke-width:2"/></g></svg>
